src/resources/disciplines/health-and-medicine.svg

<svg width="170" height="121" viewBox="0 0 170 121" fill="none" xmlns="http://www.w3.org/2000/svg">
<path opacity="0.7" d="M103.196 3.01289C103.196 3.01289 80.6211 -5.75195 59.0303 6.61781C37.4396 18.9876 27.0681 44.4385 18.1194 64.8082C9.17068 85.178 15.2171 106.315 32.2268 116.346C49.2365 126.376 60.2453 112.583 83.7282 112.544C107.211 112.504 113.622 116.123 132.751 103.051C151.881 89.978 154.533 57.933 138.505 33.725C122.477 9.51692 103.196 3.01289 103.196 3.01289Z" fill="#FFF5E3"/>
<path d="M100.851 37.8583C100.851 37.8583 102.908 39.0476 105.618 41.9726C108.327 44.8976 109.841 53.7788 106.807 55.5113C103.773 57.2438 101.934 53.8881 101.934 56.4852C101.934 59.0823 104.859 60.6028 101.603 63.3092C98.3465 66.0156 91.4198 65.8003 90.5553 61.0368C89.6907 56.2732 93.5863 53.3448 94.2356 50.2045C94.8849 47.0641 94.0203 40.8894 94.6695 38.5076C95.3188 36.1258 97.2766 36.0033 100.851 37.8583Z" fill="#001550" stroke="#001550" stroke-width="0.8" stroke-linecap="round" stroke-linejoin="round"/>
<path d="M52.0166 8.54802C52.0166 8.54802 51.195 7.8855 50.7544 7.8855C50.3139 7.8855 50.1217 8.44202 49.489 8.9356C48.8563 9.42918 47.9089 9.67432 48.4754 9.92939C48.7809 10.0466 49.1122 10.0799 49.435 10.0257C49.7577 9.97155 50.0601 9.83191 50.3106 9.62131C50.8174 9.18736 50.8174 9.43581 51.195 9.49543L51.576 9.55837L52.0166 8.54802Z" stroke="#001550" stroke-width="0.8" stroke-linecap="round" stroke-linejoin="round"/>
<path d="M51.0027 9.96594C51.0027 9.96594 49.2966 9.65787 49.1675 10.1514C49.099 10.3483 49.0941 10.5617 49.1536 10.7614C49.213 10.9611 49.3338 11.1371 49.4987 11.2645C49.7688 11.4118 50.0833 11.4553 50.3832 11.3871L51.0027 9.96594Z" stroke="#001550" stroke-width="0.8" stroke-linecap="round" stroke-linejoin="round"/>
<path d="M49.0449 10.5225C49.0449 10.5225 48.0974 10.8935 48.3492 11.5726C48.601 12.2516 49.6742 12.3742 49.6742 12.3742L50.0552 11.5726C49.6039 11.3543 49.2455 10.9819 49.0449 10.5225V10.5225Z" stroke="#001550" stroke-width="0.8" stroke-linecap="round" stroke-linejoin="round"/>
<path d="M48.4093 11.8209C48.2689 12.0631 48.224 12.349 48.2834 12.6226C48.4093 12.9936 49.1679 13.3017 49.1679 13.3017L49.6747 12.3741C49.6747 12.3741 48.4722 12.0661 48.4093 11.8209Z" stroke="#001550" stroke-width="0.8" stroke-linecap="round" stroke-linejoin="round"/>
<path d="M48.2832 12.6227C48.2832 12.6227 47.8426 12.8711 48.0314 13.2388C48.1194 13.3608 48.2321 13.4629 48.3623 13.5382C48.4925 13.6136 48.6371 13.6606 48.7867 13.6761L49.1643 13.3051C49.1643 13.3051 48.3461 12.8711 48.2832 12.6227Z" stroke="#001550" stroke-width="0.8" stroke-linecap="round" stroke-linejoin="round"/>
<path d="M93.2666 36.5333C93.2666 36.5333 89.043 33.5023 87.3039 32.5284C85.5648 31.5544 81.6725 30.9019 81.6725 30.9019L71.8141 23.6472C71.8141 23.6472 65.9673 19.3143 63.0423 17.6845C60.1172 16.0547 55.135 12.7156 55.135 12.7156L52.3259 8.70728L49.1855 14.1201L54.4857 15.3126C54.4857 15.3126 64.3574 24.0878 66.8385 26.3636C69.3197 28.6393 71.1714 29.3979 71.1714 29.3979C71.1714 29.3979 76.0476 34.2708 78.1048 35.894C80.1619 37.5172 81.1358 37.9511 81.1358 37.9511C81.1358 37.9511 80.9205 42.6087 80.4733 44.3445C80.0261 46.0803 79.3901 47.4849 78.4161 47.8095C77.9997 47.9763 77.5631 48.0877 77.1176 48.1408C77.1176 48.1408 76.4551 54.5308 78.6315 57.9958C80.8079 61.4608 85.5648 61.3548 86.8633 61.3548C88.1619 61.3548 91.0869 57.4559 91.0869 57.4559C91.0869 57.4559 94.1213 56.2633 95.3105 55.1801C96.4998 54.0969 98.5006 49.4095 98.5006 49.4095C100.752 49.9761 103.063 50.2774 105.384 50.3072C108.959 50.3072 113.941 48.4654 113.941 48.4654C113.941 48.4654 120.765 48.4654 124.014 47.4915C127.264 46.5176 135.711 43.5925 135.711 43.5925C135.711 43.5925 138.742 44.4571 141.127 44.3511C143.513 44.2451 145.566 44.0199 146.216 43.6886C146.614 43.4805 146.922 43.1342 147.084 42.7147C147.212 42.7137 147.338 42.6833 147.453 42.6259C147.568 42.5685 147.668 42.4855 147.746 42.3834C147.9 42.1417 148.04 41.8917 148.167 41.6348C148.167 41.6348 148.707 41.6348 148.707 41.2008C148.707 40.7669 147.084 40.1176 147.084 40.1176C147.084 40.1176 148.925 39.4551 148.167 39.253C147.408 39.0509 141.018 38.9217 141.018 38.9217C141.018 38.9217 140.803 38.3785 141.681 38.1631C142.558 37.9478 143.956 36.9706 143.307 36.8646L142.645 36.7553C142.029 37.065 141.374 37.288 140.697 37.4178C140.024 37.4947 139.387 37.7574 138.855 38.1764C138.421 38.5076 136.149 40.7768 136.149 40.7768C133.767 41.3247 131.334 41.6146 128.891 41.6414C124.452 41.7507 122.928 41.6414 120.119 42.1847C117.31 42.7279 114.378 43.3673 114.378 43.3673L106.686 43.8012C106.686 43.8012 103.655 43.6919 102.896 43.47C102.138 43.248 100.624 42.8074 98.6728 40.8695C97.2095 39.4669 95.6535 38.1643 94.0153 36.9706L93.2666 36.5333Z" fill="white" stroke="#001550" stroke-width="0.8" stroke-linecap="round" stroke-linejoin="round"/>
<path d="M147.096 40.1176L144.171 40.2269" stroke="#001550" stroke-width="0.8" stroke-linecap="round" stroke-linejoin="round"/>
<path d="M148.178 41.6346L144.063 41.4193" stroke="#001550" stroke-width="0.8" stroke-linecap="round" stroke-linejoin="round"/>
<path d="M147.094 42.7179L144.493 42.8272" stroke="#001550" stroke-width="0.8" stroke-linecap="round" stroke-linejoin="round"/>
<path d="M144.171 39.793L144.496 43.2613" stroke="#001550" stroke-width="0.8" stroke-linecap="round" stroke-linejoin="round"/>
<path d="M141.142 39.6868C141.119 40.0908 141.046 40.4904 140.923 40.876C140.708 41.6346 138.326 41.7439 138.326 41.7439" stroke="#001550" stroke-width="0.8" stroke-linecap="round" stroke-linejoin="round"/>
<path d="M113.956 48.4586L120.021 46.8354" stroke="#001550" stroke-width="0.8" stroke-linecap="round" stroke-linejoin="round"/>
<path d="M98.5166 49.4029L99.4441 47.4849" stroke="#001550" stroke-width="0.8" stroke-linecap="round" stroke-linejoin="round"/>
<path d="M81.1338 37.9509L83.1909 39.2528" stroke="#001550" stroke-width="0.8" stroke-linecap="round" stroke-linejoin="round"/>
<path d="M82.9795 37.0864L83.4134 40.0115" stroke="#001550" stroke-width="0.8" stroke-linecap="round" stroke-linejoin="round"/>
<path d="M95.1068 43.8012C95.1068 43.8012 95.7693 42.178 96.624 40.3362C97.4786 38.4943 98.6811 38.6037 99.115 38.819C99.549 39.0343 101.172 39.5776 101.606 39.1502C102.04 38.7229 104.203 35.2513 104.203 35.2513C104.203 35.2513 105.286 35.2513 105.614 34.7113L104.747 32.4356C104.747 32.4356 105.409 31.773 105.409 31.137V29.4045C105.409 29.4045 105.843 27.0194 105.843 26.4795C105.843 25.9395 103.677 25.2869 101.51 26.2608C99.3436 27.2347 93.2782 29.7291 92.6289 31.2298C91.9797 32.7304 91.761 36.1059 91.761 36.1059C91.761 36.1059 91.4298 37.5138 90.7871 39.571" fill="white"/>
<path d="M95.1068 43.8012C95.1068 43.8012 95.7693 42.178 96.624 40.3362C97.4786 38.4943 98.6811 38.6037 99.115 38.819C99.549 39.0343 101.172 39.5776 101.606 39.1502C102.04 38.7229 104.203 35.2513 104.203 35.2513C104.203 35.2513 105.286 35.2513 105.614 34.7113L104.747 32.4356C104.747 32.4356 105.409 31.773 105.409 31.137V29.4045C105.409 29.4045 105.843 27.0194 105.843 26.4795C105.843 25.9395 103.677 25.2869 101.51 26.2608C99.3436 27.2347 93.2782 29.7291 92.6289 31.2298C91.9797 32.7304 91.761 36.1059 91.761 36.1059C91.761 36.1059 91.4298 37.5138 90.7871 39.571" stroke="#001550" stroke-width="0.8" stroke-linecap="round" stroke-linejoin="round"/>
<path d="M96.7333 32.2269C96.7333 32.2269 96.402 29.5172 95.0008 30.1664C93.5995 30.8157 93.8115 32.8762 94.2422 33.5254C94.6728 34.1747 95.4347 34.0654 94.0268 34.9333C92.619 35.8012 91.3204 36.3412 90.3432 34.9333C89.366 33.5254 87.6368 30.6004 89.6807 27.1354C91.7246 23.6704 96.2894 20.8414 100.188 21.1727C104.087 21.5039 103.978 23.0112 103.978 23.0112C103.978 23.0112 106.684 21.2787 108.526 24.2037C110.368 27.1288 109.609 28.7519 108.857 28.7519C108.105 28.7519 107.774 27.8873 107.774 27.8873C107.774 27.8873 107.234 28.9706 106.691 29.1859C106.273 29.3276 105.834 29.4014 105.392 29.4045L105.061 27.2381C105.061 27.2381 101.812 26.6948 101.378 27.9933C100.944 29.2919 100.715 30.9184 99.4297 31.5677C98.5859 31.9709 97.6679 32.1953 96.7333 32.2269Z" fill="#001550" stroke="#001550" stroke-width="0.8" stroke-linecap="round" stroke-linejoin="round"/>
<path d="M103.646 32.6138C103.646 32.6139 103.645 32.6132 103.644 32.6115C103.645 32.6129 103.646 32.6137 103.646 32.6138ZM103.645 32.0278C103.646 32.0257 103.647 32.0248 103.647 32.0249C103.647 32.025 103.647 32.0261 103.645 32.0278Z" fill="#001550" stroke="#001550" stroke-width="0.8"/>
<path d="M102.691 31.021C102.691 31.021 103.45 29.9378 104.533 31.021" stroke="#001550" stroke-width="0.8" stroke-linecap="round" stroke-linejoin="round"/>
<path d="M101.285 35.354C101.392 35.6408 101.584 35.8879 101.836 36.062C102.088 36.2361 102.387 36.3289 102.693 36.3279" stroke="#001550" stroke-width="0.8" stroke-linecap="round" stroke-linejoin="round"/>
<path d="M99.117 38.8188L96.4072 36.3278L96.8412 39.7928C96.8412 39.7928 97.4838 38.0603 99.117 38.8188Z" fill="#001550" stroke="#001550" stroke-width="0.8" stroke-linecap="round" stroke-linejoin="round"/>
<path d="M77.1311 48.1274L76.1538 48.0181C74.5777 46.4813 72.6416 45.364 70.5224 44.7684C67.1667 43.9038 62.0752 45.0997 62.0752 45.0997C62.0752 45.0997 56.4437 41.9593 52.7601 39.5775C49.0764 37.1957 45.0715 35.0293 45.0715 35.0293C45.0715 35.0293 49.0764 26.7974 49.729 22.4645C50.3816 18.1316 51.2429 15.3324 51.7862 14.3386C52.3294 13.3448 52.8694 12.2815 52.8694 12.2815C52.8694 12.2815 55.0359 13.1461 55.7911 12.3875C56.5464 11.6289 56.2251 8.9225 56.3344 8.05459C56.4437 7.18668 56.6657 4.80822 56.6657 3.83099V2.41319C56.6657 2.41319 57.3282 1.22396 56.4503 1.43928C55.5725 1.6546 55.0425 2.41319 54.6085 3.06246C54.1746 3.71174 52.2267 8.0314 50.8156 10.3204C49.4044 12.6094 45.1841 19.4202 42.4777 24.1838C39.7713 28.9473 37.9228 35.0293 36.9456 37.1957C35.9684 39.3622 36.8396 41.4193 37.2769 41.744C37.7141 42.0686 42.9083 47.4848 47.3506 50.1912C51.7928 52.8976 54.2839 54.8487 55.6917 55.392C57.0996 55.9353 61.1079 58.857 61.5385 60.3609C61.9692 61.8649 59.806 69.8913 61.4325 75.1982C63.059 80.505 63.4897 84.1886 63.3804 86.2458C63.271 88.3029 61.7572 90.794 61.7572 94.693C61.7572 98.5919 63.705 105.625 63.9236 106.824C64.1423 108.023 65.0069 112.455 65.0069 113.972C65.0069 115.49 64.5729 118.941 64.7882 119.389C65.0035 119.836 67.7133 120.147 68.5812 119.929C69.3526 119.68 70.1534 119.534 70.9629 119.495C71.8275 119.495 73.994 119.826 75.2959 119.826C76.5977 119.826 77.787 119.935 77.893 119.495C77.999 119.054 76.8097 118.521 76.3791 118.411C75.9484 118.302 73.2354 117.328 71.9369 115.814C70.6383 114.3 69.2304 112.889 68.9058 112.021C68.5812 111.153 69.2371 100.543 69.6644 96.9687C70.0917 93.3944 70.6383 89.3861 70.8536 88.4122C71.069 87.4383 72.0462 85.3779 72.5861 81.3696C73.1261 77.3613 73.994 66.423 74.1033 65.5584C74.2745 64.6448 74.4956 63.7414 74.7658 62.852C74.7658 62.852 81.1559 61.6595 82.6731 61.6595C84.1903 61.6595 86.3567 61.5502 87.4399 60.997C88.5232 60.4437 88.7385 58.7212 87.5459 57.4226C86.3534 56.1241 82.577 54.3883 81.252 52.1224C80.6325 50.9741 79.9072 49.8862 79.0855 48.8727L77.1311 48.1274Z" fill="white" stroke="#001550" stroke-width="0.8" stroke-linecap="round" stroke-linejoin="round"/>
<path d="M76.5182 48.0646L76.1538 48.0248C74.5777 46.488 72.6416 45.3707 70.5224 44.7751C67.1667 43.9105 62.0752 45.1064 62.0752 45.1064C62.0752 45.1064 56.4437 41.966 52.7601 39.5843C49.0764 37.2025 45.0715 35.036 45.0715 35.036C45.0715 35.036 49.0764 26.8041 49.729 22.4712C49.8748 21.4774 50.0338 20.5963 50.1961 19.7748C49.0208 18.8759 47.7164 18.16 46.327 17.6514C45.0019 19.8708 43.5974 22.2095 42.4711 24.1938C39.7613 28.9607 37.9228 35.0261 36.9456 37.1925C35.9684 39.359 36.8396 41.4161 37.2769 41.7408C37.7141 42.0654 42.9083 47.4816 47.3506 50.188C51.7928 52.8944 54.2839 54.8455 55.6917 55.3888C57.0996 55.9321 61.1079 58.8538 61.5385 60.3577C61.9692 61.8617 59.806 69.8881 61.4325 75.195C63.059 80.5018 63.4897 84.1854 63.3803 86.2426C63.271 88.2997 61.7572 90.7908 61.7572 94.6898C61.7572 98.5887 63.705 105.621 63.9236 106.821C63.9534 106.993 63.9998 107.235 64.0528 107.523C66.269 107.973 67.8325 107.715 68.9124 107.241C69.0747 103.674 69.406 99.0823 69.6644 96.9722C70.095 93.3978 70.6383 89.3896 70.8536 88.4156C71.0689 87.4417 72.0462 85.3813 72.5861 81.373C73.1261 77.3647 73.994 66.4264 74.1033 65.5619C74.2745 64.6483 74.4956 63.7448 74.7658 62.8554C74.7658 62.8554 75.6569 62.6865 76.8528 62.4811C73.8747 56.9822 75.6503 50.5192 76.5182 48.0646Z" fill="#001550" stroke="#001550" stroke-width="0.8" stroke-linecap="round" stroke-linejoin="round"/>
<path d="M96.8805 52.6657C98.5136 48.6177 97.8146 47.7233 97.8146 46.2922C97.8146 44.1257 97.9239 40.2268 97.9239 40.2268L97.7981 40.0347L97.4668 39.7531C97.3737 41.3131 97.0866 42.8554 96.6121 44.3444C95.8535 46.5075 94.0117 47.8094 91.0867 45.7522C88.1616 43.6951 90.2221 40.3361 90.2221 40.3361C90.2221 40.3361 91.3683 36.6922 91.3285 35.185L90.1591 34.38C90.1856 35.7547 90.0598 38.4645 88.8142 40.3427C87.0817 42.9398 85.1306 44.5663 83.0734 44.2417C82.2299 44.1121 81.409 43.8634 80.6353 43.503C80.5857 43.8342 80.5327 44.1158 80.473 44.351C80.0391 46.0835 79.3898 47.4914 78.4159 47.816C77.9994 47.9829 77.5628 48.0942 77.1173 48.1473C77.1173 48.1473 76.4548 54.5373 78.6312 58.0023C80.8076 61.4673 85.5645 61.3613 86.8631 61.3613C88.1616 61.3613 91.0867 57.4624 91.0867 57.4624C91.0867 57.4624 94.121 56.2698 95.3103 55.1866C96.0059 54.5539 96.5459 53.4773 96.8805 52.6657Z" fill="#10B981" stroke="#001550" stroke-width="0.8" stroke-linecap="round" stroke-linejoin="round"/>
<path d="M81.6807 48.5681C81.6807 48.5681 81.7867 51.5992 84.821 52.2484" stroke="#001550" stroke-width="0.8" stroke-linecap="round" stroke-linejoin="round"/>
</svg>

<svg width="170" height="121" viewBox="0 0 170 121" fill="none" xmlns="http://www.w3.org/2000/svg"><path opacity=".7" d="M103.196 3.013S80.621-5.752 59.03 6.618c-21.59 12.37-31.962 37.82-40.91 58.19-8.95 20.37-2.903 41.507 14.107 51.538 17.01 10.03 28.018-3.763 51.501-3.802 23.483-.04 29.894 3.579 49.023-9.493 19.13-13.073 21.782-45.118 5.754-69.326-16.028-24.208-35.309-30.712-35.309-30.712Z" fill="#FFF5E3"/><path d="M100.851 37.858s2.057 1.19 4.767 4.115c2.709 2.925 4.223 11.806 1.189 13.538-3.034 1.733-4.873-1.623-4.873.974s2.925 4.118-.331 6.824c-3.256 2.707-10.183 2.491-11.048-2.272-.864-4.764 3.031-7.692 3.68-10.832.65-3.14-.215-9.316.434-11.697.65-2.382 2.608-2.505 6.182-.65Z" fill="#001550" stroke="#001550" stroke-width=".8" stroke-linecap="round" stroke-linejoin="round"/><path d="M52.017 8.548s-.822-.662-1.263-.662c-.44 0-.632.556-1.265 1.05-.633.493-1.58.738-1.014.993a1.832 1.832 0 0 0 1.836-.308c.506-.434.506-.185.884-.126l.381.063.44-1.01Z" stroke="#001550" stroke-width=".8" stroke-linecap="round" stroke-linejoin="round"/><path d="M51.003 9.966s-1.706-.308-1.836.185a.993.993 0 0 0 .332 1.114c.27.147.584.19.884.122l.62-1.421Z" stroke="#001550" stroke-width=".8" stroke-linecap="round" stroke-linejoin="round"/><path d="M49.045 10.523s-.948.37-.696 1.05c.252.679 1.325.801 1.325.801l.381-.801a2.1 2.1 0 0 1-1.01-1.05v0Z" stroke="#001550" stroke-width=".8" stroke-linecap="round" stroke-linejoin="round"/><path d="M48.41 11.82c-.141.243-.186.529-.127.803.126.37.885.679.885.679l.507-.928s-1.203-.308-1.266-.553Z" stroke="#001550" stroke-width=".8" stroke-linecap="round" stroke-linejoin="round"/><path d="M48.283 12.623s-.44.248-.252.616a1.066 1.066 0 0 0 .756.437l.377-.37s-.818-.435-.88-.683Z" stroke="#001550" stroke-width=".8" stroke-linecap="round" stroke-linejoin="round"/><path d="M93.267 36.533s-4.224-3.03-5.963-4.005c-1.74-.974-5.632-1.626-5.632-1.626l-9.858-7.255s-5.847-4.333-8.772-5.962c-2.925-1.63-7.907-4.97-7.907-4.97l-2.81-4.008-3.14 5.413 5.3 1.193s9.872 8.775 12.353 11.05c2.482 2.276 4.333 3.035 4.333 3.035s4.877 4.873 6.934 6.496c2.057 1.623 3.03 2.057 3.03 2.057s-.215 4.658-.662 6.393c-.447 1.736-1.083 3.14-2.057 3.465a5.123 5.123 0 0 1-1.298.332s-.663 6.39 1.514 9.855c2.176 3.465 6.933 3.359 8.231 3.359 1.299 0 4.224-3.9 4.224-3.9s3.034-1.192 4.224-2.275c1.189-1.083 3.19-5.77 3.19-5.77 2.251.566 4.562.867 6.883.897 3.575 0 8.557-1.842 8.557-1.842s6.824 0 10.073-.974c3.25-.973 11.697-3.898 11.697-3.898s3.031.864 5.416.758c2.386-.106 4.439-.331 5.089-.662a1.85 1.85 0 0 0 .868-.974.84.84 0 0 0 .662-.332c.154-.241.294-.491.421-.748 0 0 .54 0 .54-.434s-1.623-1.083-1.623-1.083 1.841-.663 1.083-.865c-.759-.202-7.149-.331-7.149-.331s-.215-.543.663-.759c.877-.215 2.275-1.192 1.626-1.298l-.662-.11a7.465 7.465 0 0 1-1.948.663c-.673.077-1.31.34-1.842.758-.434.332-2.706 2.6-2.706 2.6a34.042 34.042 0 0 1-7.258.865c-4.439.11-5.963 0-8.772.544-2.809.543-5.741 1.182-5.741 1.182l-7.692.434s-3.031-.11-3.79-.331c-.758-.222-2.272-.663-4.223-2.6a45.19 45.19 0 0 0-4.658-3.9l-.748-.437Z" fill="#fff" stroke="#001550" stroke-width=".8" stroke-linecap="round" stroke-linejoin="round"/><path d="m147.096 40.118-2.925.109M148.178 41.635l-4.115-.216M147.094 42.718l-2.601.11M144.171 39.793l.325 3.468M141.142 39.687a4.812 4.812 0 0 1-.219 1.189c-.215.759-2.597.868-2.597.868M113.956 48.459l6.065-1.624M98.517 49.403l.927-1.918M81.134 37.95l2.057 1.303M82.98 37.086l.433 2.925" stroke="#001550" stroke-width=".8" stroke-linecap="round" stroke-linejoin="round"/><path d="M95.107 43.801s.662-1.623 1.517-3.465c.855-1.842 2.057-1.732 2.491-1.517.434.215 2.057.759 2.491.331.434-.427 2.597-3.899 2.597-3.899s1.083 0 1.411-.54l-.867-2.275s.662-.663.662-1.299v-1.733s.434-2.385.434-2.924c0-.54-2.166-1.193-4.333-.22-2.166.975-8.232 3.47-8.881 4.97-.65 1.5-.868 4.876-.868 4.876s-.331 1.408-.974 3.465" fill="#fff"/><path d="M95.107 43.801s.662-1.623 1.517-3.465c.855-1.842 2.057-1.732 2.491-1.517.434.215 2.057.759 2.491.331.434-.427 2.597-3.899 2.597-3.899s1.083 0 1.411-.54l-.867-2.275s.662-.663.662-1.299v-1.733s.434-2.385.434-2.924c0-.54-2.166-1.193-4.333-.22-2.166.975-8.232 3.47-8.881 4.97-.65 1.5-.868 4.876-.868 4.876s-.331 1.408-.974 3.465" stroke="#001550" stroke-width=".8" stroke-linecap="round" stroke-linejoin="round"/><path d="M96.733 32.227s-.331-2.71-1.732-2.06c-1.401.649-1.19 2.71-.759 3.358.43.65 1.193.54-.215 1.408-1.408.868-2.707 1.408-3.684 0-.977-1.408-2.706-4.333-.662-7.798s6.608-6.294 10.507-5.962c3.899.33 3.79 1.838 3.79 1.838s2.706-1.732 4.548 1.193 1.083 4.548.331 4.548-1.083-.865-1.083-.865-.54 1.084-1.083 1.299a4.138 4.138 0 0 1-1.299.218l-.331-2.166s-3.249-.543-3.683.755c-.434 1.299-.663 2.925-1.948 3.575a6.786 6.786 0 0 1-2.697.659Z" fill="#001550" stroke="#001550" stroke-width=".8" stroke-linecap="round" stroke-linejoin="round"/><path d="m103.646 32.614-.002-.002.002.002Zm-.001-.586.002-.003-.002.003Z" fill="#001550" stroke="#001550" stroke-width=".8"/><path d="M102.691 31.021s.759-1.083 1.842 0M101.285 35.354a1.495 1.495 0 0 0 1.408.974" stroke="#001550" stroke-width=".8" stroke-linecap="round" stroke-linejoin="round"/><path d="m99.117 38.819-2.71-2.491.434 3.465s.643-1.733 2.276-.974Z" fill="#001550" stroke="#001550" stroke-width=".8" stroke-linecap="round" stroke-linejoin="round"/><path d="m77.131 48.127-.977-.109a13.171 13.171 0 0 0-5.632-3.25c-3.355-.864-8.447.332-8.447.332s-5.631-3.14-9.315-5.523c-3.684-2.381-7.688-4.548-7.688-4.548s4.004-8.232 4.657-12.565c.653-4.332 1.514-7.132 2.057-8.125.543-.994 1.083-2.058 1.083-2.058s2.167.865 2.922.106c.755-.758.434-3.465.543-4.332.11-.868.332-3.247.332-4.224V2.413s.662-1.189-.216-.974c-.878.216-1.408.974-1.842 1.623-.433.65-2.381 4.97-3.792 7.258-1.412 2.29-5.632 9.1-8.338 13.864-2.707 4.763-4.555 10.845-5.532 13.012-.978 2.166-.106 4.223.33 4.548.438.325 5.632 5.74 10.075 8.447 4.442 2.707 6.933 4.658 8.34 5.201 1.409.543 5.417 3.465 5.847 4.969.431 1.504-1.732 9.53-.105 14.837 1.626 5.307 2.057 8.99 1.947 11.048-.109 2.057-1.623 4.548-1.623 8.447 0 3.899 1.948 10.932 2.167 12.131.218 1.199 1.083 5.631 1.083 7.148 0 1.518-.434 4.969-.219 5.417.216.447 2.925.758 3.793.54a9.194 9.194 0 0 1 2.382-.434c.865 0 3.031.331 4.333.331s2.491.109 2.597-.331c.106-.441-1.083-.974-1.514-1.084-.43-.109-3.144-1.083-4.442-2.597-1.299-1.514-2.707-2.925-3.031-3.793-.325-.868.331-11.478.758-15.052.428-3.575.974-7.583 1.19-8.557.215-.974 1.192-3.034 1.732-7.042.54-4.009 1.408-14.947 1.517-15.812.172-.913.393-1.817.663-2.706 0 0 6.39-1.192 7.907-1.192 1.517 0 3.684-.11 4.767-.663 1.083-.553 1.299-2.276.106-3.574-1.193-1.299-4.969-3.035-6.294-5.3a20.97 20.97 0 0 0-2.166-3.25l-1.955-.746Z" fill="#fff" stroke="#001550" stroke-width=".8" stroke-linecap="round" stroke-linejoin="round"/><path d="m76.518 48.065-.364-.04a13.171 13.171 0 0 0-5.632-3.25c-3.355-.864-8.447.331-8.447.331s-5.631-3.14-9.315-5.522c-3.684-2.382-7.688-4.548-7.688-4.548s4.004-8.232 4.657-12.565c.146-.994.305-1.875.467-2.696a14.669 14.669 0 0 0-3.869-2.124c-1.325 2.22-2.73 4.558-3.856 6.543-2.71 4.767-4.548 10.832-5.525 12.999-.978 2.166-.106 4.223.33 4.548.438.324 5.632 5.74 10.075 8.447 4.442 2.706 6.933 4.657 8.34 5.2 1.409.544 5.417 3.466 5.847 4.97.431 1.504-1.732 9.53-.105 14.837 1.626 5.307 2.057 8.99 1.947 11.048-.109 2.057-1.623 4.548-1.623 8.447 0 3.899 1.948 10.931 2.167 12.131.03.172.076.414.129.702 2.216.45 3.78.192 4.86-.282.162-3.567.493-8.159.751-10.269.431-3.574.974-7.582 1.19-8.556.215-.974 1.192-3.035 1.732-7.043s1.408-14.947 1.517-15.811c.172-.914.393-1.817.663-2.707 0 0 .89-.168 2.087-.374-2.978-5.499-1.203-11.962-.335-14.416Z" fill="#001550" stroke="#001550" stroke-width=".8" stroke-linecap="round" stroke-linejoin="round"/><path d="M96.88 52.666c1.634-4.048.935-4.943.935-6.374 0-2.166.109-6.065.109-6.065l-.126-.192-.331-.282a18.813 18.813 0 0 1-.855 4.591c-.758 2.163-2.6 3.465-5.525 1.408-2.925-2.057-.865-5.416-.865-5.416s1.146-3.644 1.107-5.151l-1.17-.805c.027 1.375-.1 4.084-1.345 5.963-1.732 2.597-3.683 4.223-5.74 3.899a9.017 9.017 0 0 1-2.439-.739c-.05.331-.102.613-.162.848-.434 1.733-1.083 3.14-2.057 3.465a5.12 5.12 0 0 1-1.299.331s-.662 6.39 1.514 9.855c2.177 3.465 6.933 3.36 8.232 3.36 1.299 0 4.224-3.9 4.224-3.9s3.034-1.192 4.223-2.275c.696-.633 1.236-1.71 1.57-2.521Z" fill="#10B981" stroke="#001550" stroke-width=".8" stroke-linecap="round" stroke-linejoin="round"/><path d="M81.68 48.568s.107 3.031 3.141 3.68" stroke="#001550" stroke-width=".8" stroke-linecap="round" stroke-linejoin="round"/></svg>
